!!!OTL: DIE PINSGAUER WOLLTEN WALLFAHREN GEHN
!!!ARE: Europa, Mitteleuropa, Deutschland, Mitteleuropa, Tirol
!!!SCT: Z0135
!!!YEM: Copyright 1995, estate of Helmut Schaffrath.
**kern
*ICvox
*Ivox
*M4/4
*k[]
*C:
{4G
=1
4c
4c
8c
8B
8A
8G
=2
4c
8c
8e
2d}
=3
{2c
4A
4d
=4
4c
4B
4c}
{4G
=5
4c
4c
8c
8B
8A
8G
=6
4c
8c
8e
2d}
=7
{2c
4A
4d
=8
4c
4B
4c}
{4G
=9
4c
4c
8c
8B
8A
8G
=10
4c
8c
8e
2d}
=11
{2c
4A
4d
=12
4c
4B
4c}
{4c
=13
8e
8e
8e
8e
4f
8f
8f
=14
8d
8d
8d
8d
2g}
=15
{4e
4e
4.f
8f
=16
8d
8d
8d
8d
4.g}
{8G
=17
8c
8d
8c
8B
8A
8B
8c
8d
=18
4c
4B
4c
8r}
{8c
=19
8e
8d
8c
8B
8A
8B
8c
8d
=20
4e
4d
4c}
==
!!!AGN: Erzaehlung, lustige Romanze
!!!ONB: ESAC (Essen Associative Code) Database: ZUCCAL
!!!AMT: simple quadruple
!!!AIN: vox
!!!EED: Helmut Schaffrath
!!!EEV: 1.0
*-
